!!!COM:      Bach, Johann Sebastian
!!!CDT:      1685/03/31/-1750/07/28/
!!!OPR@@GER: Das wohltemperirte Clavier
!!!OVM@@GER: Band I
!!!OPR@ENG:  Well-Tempered Clavier
!!!OVM@ENG:  Book I
!!!OTL:      Prelude
!!!OKY:      B major
!!!ONM:      no. 23
!!!SCT:      BWV 868
!!!OMV:      1
**kern	**kern	**kern	**kern	**kern
*clefF4	*clefG2	*	*	*clefG2
*k[f#c#g#d#a#]	*k[f#c#g#d#a#]	*	*	*k[f#c#g#d#a#]
*B:	*B:	*	*	*B:
*M4/4	*M4/4	*	*	*M4/4
*met(c)	*met(c)	*	*	*met(c)
*MM66	*MM66	*MM66	*MM66	*MM66
=1-	=1-	=1-	=1-	=1-
[1B	4d#	1ryy	1ryy	16r
.	.	.	.	16b
.	.	.	.	16a#
.	.	.	.	16b
.	4e	.	.	16cc#
.	.	.	.	16a#
.	.	.	.	16b
.	.	.	.	16cc#
.	4f#	.	.	16r
.	.	.	.	16dd#
.	.	.	.	16cc#
.	.	.	.	16dd#
.	4g#	.	.	16ee
.	.	.	.	16cc#
.	.	.	.	16dd#
.	.	.	.	16ee
=2	=2	=2	=2	=2
1B_	2a#	1ryy	1ryy	16r
.	.	.	.	16ee
.	.	.	.	16dd#
.	.	.	.	16ee
.	.	.	.	16ff#
.	.	.	.	16cc#
.	.	.	.	16dd#
.	.	.	.	16ee
.	16r	.	.	2dd#
.	16a#	.	.	.
.	16g#	.	.	.
.	16a#	.	.	.
.	16b	.	.	.
.	16g#	.	.	.
.	16a#	.	.	.
.	16b	.	.	.
=3	=3	=3	=3	=3
16B]	4e#	1ryy	1ryy	[2cc#
16G#	.	.	.	.
16F#	.	.	.	.
16G#	.	.	.	.
16A#	[4f#	.	.	.
16F#	.	.	.	.
16G#	.	.	.	.
16A#	.	.	.	.
4D#	2f#]	.	.	16cc#]
.	.	.	.	16a#
.	.	.	.	16g#
.	.	.	.	16a#
4G#	.	.	.	16b
.	.	.	.	16g#
.	.	.	.	16a#
.	.	.	.	[16b
=4	=4	=4	=4	=4
4C#	4e#	1ryy	1ryy	16b]
.	.	.	.	16g#
.	.	.	.	16f#
.	.	.	.	16g#
4F#	4en	.	.	16a#
.	.	.	.	16f#
.	.	.	.	16g#
.	.	.	.	[16a#
16BB	[2d#	.	.	4a#]
16A#	.	.	.	.
16G#	.	.	.	.
16A#	.	.	.	.
16B	.	.	.	8g#
16G#	.	.	.	.
16A#	.	.	.	8f#
16B	.	.	.	.
=5	=5	=5	=5	=5
16C#	8d#]	1ryy	1ryy	4e#
16D#	.	.	.	.
16BB	8c#	.	.	.
16C#	.	.	.	.
16D#	8B	.	.	2f#
16BB	.	.	.	.
16C#	8A#	.	.	.
16D#	.	.	.	.
4GG#	16B	.	.	.
.	16A#	.	.	.
.	16G#	.	.	.
.	16A#	.	.	.
4C#	16B	.	.	4e#X
.	16G#	.	.	.
.	16A#	.	.	.
.	16B	.	.	.
=6	=6	=6	=6	=6
16FF#	4A#	1ryy	1ryy	1f#
16C#	.	.	.	.
16BB	.	.	.	.
16C#	.	.	.	.
16D#	4B	.	.	.
16BB	.	.	.	.
16C#	.	.	.	.
16D#	.	.	.	.
16FF#	4c#	.	.	.
16AA#	.	.	.	.
16GG#	.	.	.	.
16AA#	.	.	.	.
16BB	[4d#	.	.	.
16GG#	.	.	.	.
16AA#	.	.	.	.
16BB	.	.	.	.
=7	=7	=7	=7	=7
4EE	4d#]	1ryy	1ryy	16r
.	.	.	.	16g#
.	.	.	.	16f##
.	.	.	.	16g#
4E	2c#	.	.	16a#
.	.	.	.	16f##
.	.	.	.	16g#
.	.	.	.	16a#
[2D#	.	.	.	16f##
.	.	.	.	16a#
.	.	.	.	16g#
.	.	.	.	16a#
.	4B	.	.	16b
.	.	.	.	16g#
.	.	.	.	16a#
.	.	.	.	16b
=8	=8	=8	=8	=8
4D#]	8A#	1ryy	1ryy	16cc#
.	.	.	.	16gg#
.	4G#	.	.	16ff##
.	.	.	.	16gg#
4C#	.	.	.	16aa#
.	.	.	.	16ff##
.	[8F##X	.	.	16gg#
.	.	.	.	16aa#
8BB	16F##]	.	.	2dd#
.	16a#	.	.	.
8AA#	16g#	.	.	.
.	16a#	.	.	.
[4GG#	16b	.	.	.
.	16g#	.	.	.
.	16a#	.	.	.
.	16b	.	.	.
=9	=9	=9	=9	=9
16GG#]	16e	1ryy	1ryy	[2cc#
16G#	16b	.	.	.
16F##	16a#	.	.	.
16G#	16g#	.	.	.
16A#	2f##	.	.	.
16F##	.	.	.	.
16G#	.	.	.	.
16A#	.	.	.	.
8E	.	.	.	16cc#]
.	.	.	.	16dd#
8e	.	.	.	16cc#
.	.	.	.	16dd#
8d#	[4g#	.	.	16ee
.	.	.	.	16cc#
8c#	.	.	.	16dd#
.	.	.	.	16ee
=10	=10	=10	=10	=10
8d#	4g#]	1ryy	1ryy	16a#
.	.	.	.	16b
8c#	.	.	.	16a#
.	.	.	.	16b
8d#	4f##	.	.	16cc#
.	.	.	.	16a#
8D#	.	.	.	16b
.	.	.	.	16cc#
16G#	4g#	.	.	8b
16A#	.	.	.	.
16G#	.	.	.	8dd#
16A#	.	.	.	.
16B	4r	.	.	8gg#
16G#	.	.	.	.
16A#	.	.	.	8ff#
16B	.	.	.	.
=11	=11	=11	=11	=11
8C#	16r	1ryy	1ryy	2ee#
.	16cc#	.	.	.
16c#	16b	.	.	.
16B	16cc#	.	.	.
8An	16ddn	.	.	.
.	16b	.	.	.
8G#	16cc#	.	.	.
.	16dd	.	.	.
16F#	2an	.	.	8r
16G#	.	.	.	.
16F#	.	.	.	8cc#
16G#	.	.	.	.
16An	.	.	.	8ff#
16F#	.	.	.	.
16G#	.	.	.	8een
16A	.	.	.	.
=12	=12	=12	=12	=12
8BB	16r	1ryy	1ryy	2dd#X
.	16an	.	.	.
16B	16g#	.	.	.
16An	16a	.	.	.
8G#	16b	.	.	.
.	16f#	.	.	.
8F#	16g#	.	.	.
.	16a	.	.	.
16E	4g#	.	.	[2ee
16D#	.	.	.	.
16E	.	.	.	.
16D#	.	.	.	.
16C#	8a#	.	.	.
16E	.	.	.	.
16D#	8b	.	.	.
16C#	.	.	.	.
=13	=13	=13	=13	=13
4F#	4a#	1ryy	1ryy	16ee]
.	.	.	.	16cc#
.	.	.	.	16b
.	.	.	.	16cc#
4BB	4an	.	.	16dd#
.	.	.	.	16b
.	.	.	.	16cc#
.	.	.	.	[16dd#
16E	[2g#	.	.	4dd#]
16d#	.	.	.	.
16c#	.	.	.	.
16d#	.	.	.	.
16e	.	.	.	8cc#
16c#	.	.	.	.
16d#	.	.	.	8b
16e	.	.	.	.
=14	=14	=14	=14	=14
16F#	8g#]	1ryy	1ryy	4a#
16G#	.	.	.	.
16E	8f#	.	.	.
16F#	.	.	.	.
16G#	8e	.	.	2b
16E	.	.	.	.
16F#	8d#	.	.	.
16G#	.	.	.	.
4C#	16e	.	.	.
.	16d#	.	.	.
.	16c#	.	.	.
.	16d#	.	.	.
4F#	16e	.	.	4a#
.	16c#	.	.	.
.	16d#	.	.	.
.	16e	.	.	.
=15	=15	=15	=15	=15
[2BB	4d#	1ryy	1ryy	16r
.	.	.	.	16an
.	.	.	.	16b
.	.	.	.	16a
.	[4e	.	.	16g#
.	.	.	.	16b
.	.	.	.	16a
.	.	.	.	16g#
16BB]	4e]	.	.	[2f#
16C#	.	.	.	.
16D#	.	.	.	.
16E	.	.	.	.
16F#	8d#	.	.	.
16An	.	.	.	.
16G#	8c#	.	.	.
16F#	.	.	.	.
=16	=16	=16	=16	=16
*	*	*staff:2	*	*
*	*	*clefG2	*	*
*	*	*k[f#c#g#d#a#]	*	*
1G#	1B	2ryy	1ryy	16f#]
.	.	.	.	16f#
.	.	.	.	16g#
.	.	.	.	16f#
.	.	.	.	16e#
.	.	.	.	16g#
.	.	.	.	16f#
.	.	.	.	16e#
.	.	2e#	.	16b
.	.	.	.	16cc#
.	.	.	.	16b
.	.	.	.	16cc#
.	.	.	.	16ddn
.	.	.	.	16b
.	.	.	.	16cc#
.	.	.	.	16dd
=17	=17	=17	=17	=17
[1F#	16r	4f#	1ryy	4a#
.	16en	.	.	.
.	16f#	.	.	.
.	16e	.	.	.
.	16d#	4g#	.	4b
.	16f#	.	.	.
.	16e	.	.	.
.	16d#	.	.	.
.	16r	4a#	.	4cc#
.	16c#	.	.	.
.	16d#	.	.	.
.	16c#	.	.	.
.	16B	4b	.	4dd#
.	16d#	.	.	.
.	16c#	.	.	.
.	16B	.	.	.
=18	=18	=18	=18	=18
*	*staff:1	*	*	*
*	*clefF4	*	*	*
16F#]	4A#	4cc#	1ryy	16r
16F#	.	.	.	16ee
16E	.	.	.	16ff#
16F#	.	.	.	16ee
16G#	4B	4b	.	16dd#
16E	.	.	.	16ff#
16F#	.	.	.	16ee
16G#	.	.	.	16dd#
4AA#	[2F#	16r	.	4cc#
.	.	16e	.	.
.	.	16f#	.	.
.	.	16e	.	.
4BB	.	16d#	.	[4b
.	.	16f#	.	.
.	.	16e	.	.
.	.	16d#	.	.
=19	=19	=19	=19	=19
*	*	*	*staff:2	*
*	*	*	*clefG2	*
*	*	*	*k[f#c#g#d#a#]	*
2FF#	16F#]	2c#	4ryy	4b]
.	16D#	.	.	.
.	16C#	.	.	.
.	16D#	.	.	.
.	16E	.	4f#	4a#
.	16C#	.	.	.
.	16D#	.	.	.
.	16E	.	.	.
2BB	2D#	2B;y	2f#;y	2b;
==	==	==	==	==
*-	*-	*-	*-	*-
!!!AFR:  prelude
!!!EFL:  45/96
!!!END:  1994/01/21/
!!!VID:  580896669 Bach, BWV 868-01
!!!AST:  Baroque
!!!OCY:  Deutschland
!!!ODT:  1722///
!!!PDT:  1801///
!!!EED:  Walter Hewlett
!!!ENC:  Walter Hewlett
!!!YOR:  Bach Gesellschaft Edition xiv
!!!AFT:  enhanced SCORE
!!!RDT:  2011/10/07/ by Andreas Kornstaedt using massScr2hmd
!!!SCA1: Thematisch-systematisches Verzeichnis der musikalischen Werke 
!!!SCA2: Johann Sebastian Bach: Bach-Werke-Verzeichnis (Schmieder)
!!!YEC1: Copyright 1994, 2000 Center for Computer Assisted Research 
!!!YEC2: in the Humanities
!!!YEM1: Rights to all derivative editions reserved.
!!!YEM2: Refer to licensing agreement for further details.
!!!YEN:  United States of America
!!!ref:  @{OTL}, @{SCT}
!!muse2ps: T^@{OTL} @{ONM} in @{OKY}^C^J.S. Bach\n@{SCT}-@{OMV}^
!!muse2ps: u^@{OPR@ENG}, @{OVM@ENG}^j
